!!!OTL: ALS ICH DICH ZUM ERSTENMAL ERBLICKTE
!!!ARE: Europa, Mitteleuropa, Deutschland, Rheinland
!!!SCT: B0401
!!!YEM: Copyright 1995, estate of Helmut Schaffrath.
**kern
*ICvox
*Ivox
*M4/4
*k[]
*C:
{8.g
16f
=1
4.e
8g
8.cc
16b
8.a
16e
=2
8g
8f
4f
4r}
{8.f
16b
=3
4.dd
8cc
8b
8a
8g
8f
=4
2e
4r}
{8.g
16e
=5
4.cc
8g
8.ee
16dd
8.cc
16b
=6
8b
8a
8a
4r}
{8cc
8b
8a
=7
4.g
8cc
8.b
16a
8g
8f
=8
2e
4r}
{8.g
16e
=9
4.cc
8g
8.ee
16dd
8.cc
16b
=10
8b
8a
8a
4r}
{8cc
8b
8a
=11
4.g
8cc
8.b
16a
8g
8f
=12
2e
4r}
==
!!!AGN: Liebes - Lied, Liebes - Lust
!!!ONB: ESAC (Essen Associative Code) Database: BOEHME
!!!AMT: simple quadruple
!!!AIN: vox
!!!EED: Helmut Schaffrath
!!!EEV: 1.0
*-
